X: 3126
T: Beaumont Rag
R: reel
M: 4/4
K: Fmajor
z2f2g2a2|"C"b4g3^d|ege(c4c)|"F"a4f3c|dcAc2dcA|"C"cdeg2ege|agec2dcA|
FGAc2AcA|dcAc2dcA|"C"b2b2gbg^d|egec2dec|"F"a2a2fgfc|dcAc2dcA|
"Bb"Bcdef2gf|"F"agfdc2ba|"C"gfed cdeg|"F"f8||EEcE EdEE|
cEEE dEcE|FFcF FdFF|cFFF dFcF|EEcE EdEE|
cEEE d2fe|f2F2F2cB|Acf2f4|EEcE EdEE|cEEE dEcE|
FFcF FdFF|^dFF=d FFc2|"Bb"Bcde fegf|"F"agfdc2ba|"C"gfed cdeg|"F"f8||

